src/16/actions/dashboard-show.svg

<svg xmlns="http://www.w3.org/2000/svg" viewBox="0 0 16 16"><path d="M2 2v12h12V2H2zm1 1h10v10H3V3zm1 8v1h8v-1H4z" fill="currentColor" color="#5d656b"/></svg>

<svg xmlns="http://www.w3.org/2000/svg" viewBox="0 0 16 16">
  <defs id="defs3051">
    <style type="text/css" id="current-color-scheme">
      .ColorScheme-Text {
        color:#5d656b;
      }
      </style>
  </defs>
 <path style="fill:currentColor;fill-opacity:1;stroke:none" 
       d="M 2 2 L 2 14 L 14 14 L 14 2 L 2 2 z M 3 3 L 13 3 L 13 13 L 3 13 L 3 3 z M 4 11 L 4 12 L 12 12 L 12 11 L 4 11 z "
     class="ColorScheme-Text"
     />
</svg>
